flaticon/business/money.svg

<svg xmlns="http://www.w3.org/2000/svg" width="32" height="32" viewBox="0 0 24 24">
    <path d="M14.09375 19.976562C13.320312 19.976562 12.6875 20.609375 12.6875 21.382812 12.6875 22.160156 13.320312 22.792969 14.09375 22.792969 14.871094 22.792969 15.503906 22.160156 15.503906 21.382812 15.503906 20.609375 14.871094 19.976562 14.09375 19.976562zM14.09375 21.988281C13.761719 21.988281 13.492188 21.71875 13.492188 21.382812 13.492188 21.050781 13.761719 20.78125 14.09375 20.78125 14.429688 20.78125 14.699219 21.050781 14.699219 21.382812 14.699219 21.71875 14.429688 21.988281 14.09375 21.988281zM5.460938 8.535156L6.882812 9.957031C6.960938 10.035156 7.0625 10.074219 7.164062 10.074219 7.269531 10.074219 7.371094 10.035156 7.449219 9.957031 7.609375 9.800781 7.609375 9.542969 7.449219 9.386719L6.566406 8.503906C7.011719 7.835938 7.011719 6.957031 6.566406 6.285156L8.332031 4.523438C8.984375 4.957031 9.898438 4.957031 10.550781 4.523438L11.433594 5.40625C11.589844 5.5625 11.84375 5.5625 12.003906 5.40625 12.160156 5.246094 12.160156 4.992188 12.003906 4.835938L10.578125 3.414062 10.296875 3.695312C9.839844 4.152344 9.042969 4.152344 8.589844 3.695312L8.304688 3.414062 5.457031 6.257812 5.742188 6.542969C6.214844 7.011719 6.214844 7.777344 5.742188 8.25zM17.4375 11.40625C16.992188 12.078125 16.992188 12.957031 17.4375 13.625L15.671875 15.390625C15.019531 14.957031 14.105469 14.957031 13.453125 15.390625L12.570312 14.507812C12.414062 14.351562 12.160156 14.351562 12.003906 14.507812 11.84375 14.667969 11.84375 14.921875 12.003906 15.078125L13.425781 16.5 13.710938 16.214844C14.164062 15.761719 14.960938 15.761719 15.417969 16.214844L15.703125 16.5 18.546875 13.65625 18.261719 13.371094C17.792969 12.902344 17.792969 12.136719 18.261719 11.664062L18.546875 11.378906 17.125 9.957031C16.964844 9.800781 16.710938 9.800781 16.554688 9.957031 16.398438 10.113281 16.398438 10.367188 16.554688 10.527344zM19.515625 12.515625C19.515625 12.738281 19.335938 12.917969 19.113281 12.917969 18.894531 12.917969 18.710938 12.738281 18.710938 12.515625 18.710938 12.292969 18.894531 12.113281 19.113281 12.113281 19.335938 12.113281 19.515625 12.292969 19.515625 12.515625zM14.964844 17.070312C14.964844 17.292969 14.785156 17.472656 14.5625 17.472656 14.339844 17.472656 14.160156 17.292969 14.160156 17.070312 14.160156 16.847656 14.339844 16.667969 14.5625 16.667969 14.785156 16.667969 14.964844 16.847656 14.964844 17.070312zM9.726562 3.128906C9.882812 2.972656 10.03125 2.714844 9.875 2.558594 9.71875 2.402344 9.460938 2.402344 9.304688 2.558594 9.148438 2.71875 9 2.972656 9.15625 3.128906 9.316406 3.285156 9.570312 3.285156 9.726562 3.128906zM5.292969 7.394531C5.292969 7.617188 5.113281 7.796875 4.890625 7.796875 4.667969 7.796875 4.488281 7.617188 4.488281 7.394531 4.488281 7.171875 4.667969 6.992188 4.890625 6.992188 5.113281 6.992188 5.292969 7.171875 5.292969 7.394531zM5.292969 7.394531"/>
    <path d="M 20.734375 14.945312 C 20.734375 14.59375 20.675781 14.246094 20.566406 13.910156 L 21.957031 12.519531 L 20.125 10.664062 C 20.503906 10.324219 20.734375 9.839844 20.734375 9.3125 C 20.734375 8.316406 19.921875 7.503906 18.921875 7.503906 C 18.851562 7.503906 18.777344 7.511719 18.707031 7.519531 C 18.714844 7.449219 18.722656 7.375 18.722656 7.300781 C 18.722656 6.304688 17.910156 5.492188 16.910156 5.492188 C 16.839844 5.492188 16.765625 5.5 16.695312 5.507812 C 16.703125 5.4375 16.710938 5.363281 16.710938 5.289062 C 16.710938 4.292969 15.898438 3.480469 14.898438 3.480469 C 14.828125 3.480469 14.753906 3.488281 14.683594 3.496094 C 14.691406 3.425781 14.699219 3.351562 14.699219 3.277344 C 14.699219 2.230469 14 1.46875 13.035156 1.46875 C 12.511719 1.46875 11.980469 1.695312 11.609375 2.039062 L 9.59375 0 L 2.042969 7.394531 L 5.761719 11.113281 C 5.5625 11.402344 5.445312 11.753906 5.445312 12.128906 C 5.445312 12.761719 5.769531 13.316406 6.257812 13.640625 C 6.28125 13.671875 6.3125 13.703125 6.347656 13.734375 L 10.675781 18.046875 L 10.675781 18.769531 L 9.871094 18.769531 L 9.871094 24 L 20.332031 24 L 20.332031 18.769531 L 19.527344 18.769531 L 19.527344 17.550781 C 20.296875 16.898438 20.734375 15.960938 20.734375 14.945312 Z M 6.25 12.128906 C 6.25 11.867188 6.355469 11.628906 6.519531 11.449219 L 6.582031 11.390625 C 6.722656 11.265625 6.890625 11.179688 7.070312 11.144531 C 7.128906 11.132812 7.191406 11.125 7.253906 11.125 L 11.277344 11.125 C 11.832031 11.125 12.285156 11.574219 12.285156 12.128906 C 12.285156 12.195312 12.277344 12.257812 12.265625 12.320312 C 12.179688 12.746094 11.820312 13.082031 11.371094 13.125 L 11.253906 13.136719 L 7.253906 13.136719 C 6.699219 13.136719 6.25 12.6875 6.25 12.128906 Z M 9.726562 7.679688 C 10.980469 6.425781 13.023438 6.425781 14.277344 7.679688 C 14.886719 8.289062 15.222656 9.097656 15.222656 9.957031 C 15.222656 10.816406 14.886719 11.625 14.277344 12.234375 C 13.875 12.636719 13.371094 12.921875 12.832031 13.0625 C 12.875 12.992188 12.914062 12.914062 12.945312 12.835938 C 12.949219 12.832031 12.949219 12.828125 12.949219 12.824219 C 12.988281 12.730469 13.019531 12.632812 13.039062 12.535156 C 13.046875 12.507812 13.050781 12.484375 13.058594 12.457031 C 13.078125 12.351562 13.089844 12.242188 13.089844 12.128906 C 13.089844 11.132812 12.277344 10.320312 11.28125 10.320312 L 8.808594 10.320312 C 8.695312 9.347656 9.027344 8.378906 9.726562 7.679688 Z M 19.929688 9.3125 C 19.929688 9.621094 19.789062 9.902344 19.558594 10.089844 L 18.15625 8.667969 C 18.34375 8.445312 18.621094 8.308594 18.921875 8.308594 C 19.476562 8.308594 19.929688 8.757812 19.929688 9.3125 Z M 17.917969 7.300781 C 17.917969 7.601562 17.78125 7.878906 17.558594 8.066406 L 16.15625 6.644531 C 16.34375 6.429688 16.617188 6.296875 16.910156 6.296875 C 17.464844 6.296875 17.917969 6.746094 17.917969 7.300781 Z M 15.90625 5.289062 C 15.90625 5.582031 15.773438 5.855469 15.5625 6.042969 L 14.15625 4.621094 C 14.34375 4.414062 14.609375 4.285156 14.898438 4.285156 C 15.453125 4.285156 15.90625 4.734375 15.90625 5.289062 Z M 13.035156 2.273438 C 13.628906 2.273438 13.894531 2.777344 13.894531 3.277344 C 13.894531 3.566406 13.769531 3.828125 13.5625 4.015625 L 12.175781 2.613281 C 12.394531 2.414062 12.722656 2.273438 13.035156 2.273438 Z M 9.585938 1.136719 L 11.15625 2.726562 L 11.121094 2.804688 L 19.398438 11.082031 L 19.40625 11.078125 L 20.824219 12.515625 L 14.570312 18.769531 L 14.554688 18.769531 L 9.726562 13.941406 L 11.277344 13.941406 C 11.320312 13.941406 11.359375 13.933594 11.398438 13.929688 C 11.601562 13.960938 11.800781 13.976562 12 13.976562 C 13.058594 13.976562 14.089844 13.558594 14.847656 12.800781 C 15.605469 12.042969 16.027344 11.03125 16.027344 9.957031 C 16.027344 8.882812 15.605469 7.871094 14.847656 7.113281 C 13.277344 5.542969 10.726562 5.542969 9.15625 7.113281 C 8.304688 7.964844 7.890625 9.136719 8 10.320312 L 7.253906 10.320312 C 7.148438 10.320312 7.042969 10.332031 6.941406 10.351562 C 6.90625 10.359375 6.875 10.363281 6.84375 10.371094 C 6.765625 10.390625 6.695312 10.414062 6.621094 10.441406 C 6.558594 10.464844 6.5 10.492188 6.441406 10.523438 C 6.414062 10.539062 6.382812 10.550781 6.351562 10.566406 L 3.1875 7.398438 Z M 11.339844 17.554688 C 11.320312 17.539062 11.300781 17.527344 11.265625 17.5 L 7.695312 13.941406 L 8.589844 13.941406 L 13.417969 18.769531 L 11.480469 18.769531 L 11.480469 17.675781 Z M 10.675781 23.195312 L 10.675781 19.574219 L 14.066406 19.574219 C 14.121094 19.574219 14.175781 19.578125 14.230469 19.582031 L 14.5625 19.914062 L 14.78125 19.695312 C 15.667969 19.996094 16.308594 20.832031 16.308594 21.816406 L 16.308594 23.195312 Z M 19.527344 23.195312 L 17.113281 23.195312 L 17.113281 21.816406 C 17.113281 20.929688 16.730469 20.132812 16.121094 19.574219 L 19.527344 19.574219 Z M 15.707031 18.769531 L 19.902344 14.574219 C 19.921875 14.699219 19.929688 14.820312 19.929688 14.945312 C 19.929688 15.773438 19.546875 16.535156 18.882812 17.035156 L 18.722656 17.15625 L 18.722656 18.769531 Z M 15.707031 18.769531"/>
</svg>

<svg xmlns="http://www.w3.org/2000/svg" width="32" height="32" viewBox="0 0 24 24">
    <path d="M14.094 19.977a1.41 1.41 0 0 0-1.406 1.406c0 .777.632 1.41 1.406 1.41.777 0 1.41-.633 1.41-1.41 0-.774-.633-1.406-1.41-1.406zm0 2.011a.603.603 0 0 1 0-1.207.603.603 0 1 1 0 1.207zm0 0M5.46 8.535l1.423 1.422a.399.399 0 0 0 .566 0 .399.399 0 0 0 0-.57l-.883-.883a2.01 2.01 0 0 0 0-2.219l1.766-1.762a2.055 2.055 0 0 0 2.219 0l.883.883c.156.157.41.157.57 0a.406.406 0 0 0 0-.57l-1.426-1.422-.281.281c-.457.457-1.254.457-1.707 0l-.285-.28-2.848 2.843.285.285a1.205 1.205 0 0 1 0 1.707zm0 0M17.438 11.406a2.01 2.01 0 0 0 0 2.219l-1.766 1.766a2.055 2.055 0 0 0-2.219 0l-.883-.883a.4.4 0 0 0-.566 0 .399.399 0 0 0 0 .57l1.422 1.422.285-.285c.453-.453 1.25-.453 1.707 0l.285.285 2.844-2.844-.285-.285a1.212 1.212 0 0 1 0-1.707l.285-.285-1.422-1.422a.406.406 0 0 0-.57 0 .406.406 0 0 0 0 .57zm0 0M19.516 12.516a.402.402 0 1 1-.804 0 .402.402 0 0 1 .804 0zm0 0M14.965 17.07a.402.402 0 1 1-.804.001.402.402 0 0 1 .804 0zm0 0M9.727 3.129c.156-.156.304-.414.148-.57a.406.406 0 0 0-.57 0c-.157.16-.305.414-.149.57.16.156.414.156.57 0zm0 0M5.293 7.395a.402.402 0 1 1-.804 0 .402.402 0 0 1 .804 0zm0 0"/>
    <path d="M20.734 14.945c0-.351-.058-.699-.168-1.035l1.391-1.39-1.832-1.856c.379-.34.61-.824.61-1.351 0-.997-.813-1.81-1.813-1.81-.07 0-.145.009-.215.017.008-.07.016-.145.016-.22 0-.995-.813-1.808-1.813-1.808-.07 0-.144.008-.215.016.008-.07.016-.145.016-.219 0-.996-.813-1.809-1.813-1.809-.07 0-.144.008-.214.016.007-.07.015-.144.015-.219C14.7 2.23 14 1.47 13.035 1.47c-.523 0-1.055.226-1.426.57L9.594 0 2.043 7.395l3.719 3.718c-.2.29-.317.64-.317 1.016 0 .633.325 1.187.813 1.512a.664.664 0 0 0 .09.093l4.328 4.313v.723H9.87V24h10.461v-5.23h-.805v-1.22a3.39 3.39 0 0 0 1.207-2.605zM6.25 12.13c0-.262.105-.5.27-.68l.062-.058a1.037 1.037 0 0 1 .672-.266h4.023a1.007 1.007 0 0 1 .989 1.195 1.014 1.014 0 0 1-.895.805l-.117.012h-4c-.555 0-1.004-.45-1.004-1.008zm3.477-4.45a3.223 3.223 0 0 1 5.496 2.278 3.2 3.2 0 0 1-.946 2.277 3.19 3.19 0 0 1-1.445.829c.043-.07.082-.149.113-.227.004-.004.004-.008.004-.012.04-.094.07-.191.09-.289.008-.027.012-.05.02-.078a1.812 1.812 0 0 0-1.777-2.137H8.808a3.2 3.2 0 0 1 .918-2.64zM19.93 9.313a1 1 0 0 1-.371.778l-1.403-1.422c.188-.223.465-.36.766-.36.555 0 1.008.45 1.008 1.005zm-2.012-2.011c0 .3-.137.578-.36.765l-1.402-1.421c.188-.215.461-.348.754-.348.555 0 1.008.45 1.008 1.004zm-2.012-2.012c0 .293-.133.566-.344.754l-1.406-1.422c.188-.207.453-.336.742-.336.555 0 1.008.45 1.008 1.004zm-2.87-3.016c.593 0 .859.504.859 1.004a.99.99 0 0 1-.332.739l-1.387-1.403c.219-.199.547-.34.86-.34zm-3.45-1.136l1.57 1.59-.035.078 8.277 8.277.008-.004 1.418 1.438-6.254 6.254h-.015L9.727 13.94h1.55c.043 0 .082-.007.121-.011a4.034 4.034 0 0 0 3.45-1.129 4.001 4.001 0 0 0 1.18-2.844 4.027 4.027 0 0 0-6.871-2.844A4.001 4.001 0 0 0 8 10.32h-.746c-.106 0-.211.012-.313.032-.035.007-.066.011-.097.02-.078.019-.149.042-.223.07-.062.023-.121.05-.18.081-.027.016-.058.028-.09.043L3.189 7.398zm1.754 16.418c-.02-.016-.04-.028-.074-.055l-3.57-3.559h.894l4.828 4.829H11.48v-1.094zm-.664 5.64v-3.62h3.39c.055 0 .11.003.164.007l.332.332.22-.219a2.245 2.245 0 0 1 1.527 2.121v1.38zm8.851 0h-2.414v-1.379c0-.886-.383-1.683-.992-2.242h3.406zm-3.82-4.425l4.195-4.196a2.598 2.598 0 0 1-1.02 2.46l-.16.122v1.614zm0 0"/>
</svg>
